X:100
T:Padraig O'Keeffe's
R:polka
D:Kevin Conneff: The Week before Easter
Z:id:hn-polka-100
M:2/4
L:1/8
K:G
Bd cA|D2 B2|D2 A2|D2 B>A|Bd cA|D2 B>A|Bd cA|1 G2 GA:|2 G2 GB||
|:e2 ef/e/|d2 de|f2 fd|g2 gf|e2 e>f|ed dc|B/c/d ef|gd ef|
g2 d>c|BG GA/G/|FA AB/A/|GA Bd|g2 d2|B2 BA|Bd cA|1 G2 GB:|2 G2 GA||
<end>
<start>
